X:184
T:Go to the Devil and Shake Yourself
M:6/8
L:1/8
R:Jig
K:BMin
B2c|:"Bmi"d2f fef|d2B Bcd|"A"c2e ede|c2A ABc|
"D"d2f fef|"A"abc' "Bmi"d'c'b|"D"a2 f fef|1 "Bmi"d2B "G"B2c:|2 "Bmi"d2B
"A"B2b||
"D"a2f fef|a2f "G"fc'd'|"D"a2f fef|"G"d2B B2b|
"D"a2f fef|"A"abc' "Bmi"d'c'b|a"D"2f fef|"Bmi"d2B B2b:|
